X:1
T:Partition sans titre
C:Compositeur / Arrangeur
L:1/8
M:4/4
I:linebreak $
K:D
V:1 treble nm="Violon" snm="Vln."
V:1
"Em" E2 BE dEBE | E2 BE"D" AFDF |"Em" E2 BE dEBE | BABc"D" dAFD ::"D" d2 fd"A" c2 ec | %5
"D" defg af"G"ge |1"D" d2 fd"A" c2 ec | BABc"D" dAFA :|2"D" af"G"ge"D" fd"A"ec | BABc"D" dAFD |] %10
